X:14
T:Vaudeville
M:3
L:1/4
Q:3/8=180
K:C
%%staves [1 2]
V:1
ceg | ecG | cd!!B | c3 | cde | efg | gfe | !!d2d | ceg | ecG | cd!!B |
c3 | gfe | !!dcB | e!!A>G |1 G3 :|2 G3 || dde | fAB | cef | g3 | GGc | GGc |
d>ed/e/ | !!e2d | dde | dAB | cef | g3 | GGc | GGc | d!!d2 | c3 |]
V:2
C,C,C, | C,E,G, | C,F,,G,, | C,,3 | z3 | CDE | EB,C | G,G,,/A,,/B,,/G,,/ | C,C,C, | C,E,G, | C,F,,G,, |
C,,3 | EDC | B,A,G, | C,D,D,, |1 G,,(G,/F,/E,/D,/) :|2 G,,3 || G,F,E, | D,C,B,, | A,,!!G,,F,, | E,,3 | E,3 | C2C |
CB,G, | CC,G, | G,F,E, | D,!!C,B,, | A,,!!G,,F,, | E,,3 | E,3 | C2E, | F,G,G,, | C,3 |]
